X: 23225
T: Leaps & Bounds
R: reel
M: 4/4
K: Amixolydian
|:A3B c3d|eaec d2cd|eaec Acec|BEEE BdcB|
A3B c3d|eaec d2cd|eaec BgeB|1 c2Bc AFEF:|2 c2A2 A4||
|:a3f g3e|fedf eAAA|eAgA eAAA|BGBd gdBG|
a3f g3e|fedf e3c|d2fd caec|BgeB cAA2:|

